X: 13079
T: Fiollaigean
R: slip jig
M: 9/8
K: Ddorian
A3 ADD F2G|A3 d3 dcA|c2A dcA G2c|AGE G2c AGE||
D3 F2c AGE|D3 F2c dcA|D3 F2G A2c|dAA A2G FDD||

